img/icons/wifi.svg

<?xml version="1.0" encoding="UTF-8" standalone="no"?>
<!-- Uploaded to: SVG Repo, www.svgrepo.com, Generator: SVG Repo Mixer Tools -->

<svg
   width="800px"
   height="800px"
   viewBox="0 0 24 24"
   fill="none"
   version="1.1"
   id="svg1"
   sodipodi:docname="wifi.svg"
   inkscape:version="1.3 (0e150ed6c4, 2023-07-21)"
   xmlns:inkscape="http://www.inkscape.org/namespaces/inkscape"
   xmlns:sodipodi="http://sodipodi.sourceforge.net/DTD/sodipodi-0.dtd"
   xmlns="http://www.w3.org/2000/svg"
   xmlns:svg="http://www.w3.org/2000/svg">
  <defs
     id="defs1" />
  <sodipodi:namedview
     id="namedview1"
     pagecolor="#505050"
     bordercolor="#eeeeee"
     borderopacity="1"
     inkscape:showpageshadow="0"
     inkscape:pageopacity="0"
     inkscape:pagecheckerboard="0"
     inkscape:deskcolor="#505050"
     inkscape:zoom="0.93375"
     inkscape:cx="400"
     inkscape:cy="400"
     inkscape:window-width="1920"
     inkscape:window-height="1057"
     inkscape:window-x="-8"
     inkscape:window-y="-8"
     inkscape:window-maximized="1"
     inkscape:current-layer="svg1" />
  <path
     id="Vector"
     d="m 8.34277,14.5899 c 0.46584,-0.4996 1.0290841,-0.898436 1.65503,-1.1719 0.625884,-0.273436 1.3017,-0.4155 1.9848,-0.4179 0.683,-0.0024 1.3593,0.1352 1.9871,0.4043 0.6278,0.2691 1.194,0.6639 1.6633,1.1602 M 6.14941,11.5439 C 6.89476,10.7446 7.7959627,10.106583 8.79745,9.66902 9.7989227,9.2314632 10.8793,9.0038848 11.9721,9.00007 c 1.0929,-0.00382 2.174505,0.2164273 3.179,0.64697 1.004505,0.430547 1.9106,1.06236 2.6616,1.85646 M 3.22363,8.81635 C 4.34165,7.61742 5.69347,6.66028 7.19569,6.00398 8.69791,5.34768 10.3179,5.0057948 11.9572,5.00007 c 1.6394,-0.00573 3.2636,0.32465 4.7704,0.97045 1.5068,0.6458 2.8655,1.59406 3.9919,2.78516 M 12,19.0001 c -0.5523,0 -1,-0.4477 -1,-1 0,-0.5523 0.4477,-1 1,-1 0.5523,0 1,0.4477 1,1 0,0.5523 -0.4477,1 -1,1 z"
     stroke="#000000"
     stroke-width="2"
     stroke-linecap="round"
     stroke-linejoin="round"
     sodipodi:nodetypes="csssccsssccssscsssss"
     style="stroke:#ab8a62;stroke-opacity:1" />
</svg>

<?xml version="1.0" encoding="utf-8"?>
<!-- Uploaded to: SVG Repo, www.svgrepo.com, Generator: SVG Repo Mixer Tools -->
<svg width="800px" height="800px" viewBox="0 0 24 24" fill="none" xmlns="http://www.w3.org/2000/svg">
<g id="System / Wifi_High">
<path id="Vector" d="M8.34277 14.5899C8.80861 14.0903 9.37187 13.6915 9.9978 13.418C10.6237 13.1446 11.2995 13.0025 11.9826 13.0001C12.6656 12.9977 13.3419 13.1353 13.9697 13.4044C14.5975 13.6735 15.1637 14.0683 15.633 14.5646M6.14941 11.5439C6.89476 10.7446 7.79597 10.1066 8.79745 9.66902C9.79893 9.23148 10.8793 9.00389 11.9721 9.00007C13.065 8.99626 14.1466 9.21651 15.1511 9.64704C16.1556 10.0776 17.0617 10.7094 17.8127 11.5035M3.22363 8.81635C4.34165 7.61742 5.69347 6.66028 7.19569 6.00398C8.69791 5.34768 10.3179 5.0058 11.9572 5.00007C13.5966 4.99435 15.2208 5.32472 16.7276 5.97052C18.2344 6.61632 19.5931 7.56458 20.7195 8.75568M12 19.0001C11.4477 19.0001 11 18.5524 11 18.0001C11 17.4478 11.4477 17.0001 12 17.0001C12.5523 17.0001 13 17.4478 13 18.0001C13 18.5524 12.5523 19.0001 12 19.0001Z" stroke="#000000" stroke-width="2" stroke-linecap="round" stroke-linejoin="round"/>
</g>
</svg>
